ui/StatusQ/src/assets/img/icons/underline.svg

<svg fill="none" height="20" viewBox="0 0 20 20" width="20" xmlns="http://www.w3.org/2000/svg"><path clip-rule="evenodd" d="m5.4 3.5v.01275c0 1.7398 0 3.25205.06323 4.53252.06318 1.27929.19085 2.37073.46332 3.25623.27551.8954.71235 1.6227 1.41873 2.1132.69949.4858 1.586.6853 2.65472.6853 1.0687 0 1.9552-.1995 2.6547-.6853.7064-.4905 1.1432-1.2178 1.4188-2.1132.2724-.8855.4001-1.977.4633-3.25628.0632-1.28046.0632-2.79268.0632-4.53244v-.00008-.0127h-1.2c0 1.75487-.0002 3.23837-.0618 4.48603-.0618 1.25197-.1841 2.22297-.4117 2.96247-.2245.7296-.5376 1.1898-.9563 1.4806-.4255.2954-1.0389.4709-1.9702.4709-.93126 0-1.54475-.1754-1.97025-.4709-.41862-.2907-.73178-.7509-.95627-1.4805-.22754-.7395-.34988-1.71054-.41171-2.96252-.06161-1.24766-.06177-2.73118-.06177-4.48608zm-.4 12.4v1.2h10v-1.2z" fill="#09101c" fill-rule="evenodd"/></svg>

<svg width="20" height="20" viewBox="0 0 20 20" fill="none" xmlns="http://www.w3.org/2000/svg">
<path fill-rule="evenodd" clip-rule="evenodd" d="M5.4 3.5V3.51275V3.51275C5.4 5.25255 5.4 6.7648 5.46323 8.04527C5.52641 9.32456 5.65408 10.416 5.92655 11.3015C6.20206 12.1969 6.6389 12.9242 7.34528 13.4147C8.04477 13.9005 8.93128 14.1 10 14.1C11.0687 14.1 11.9552 13.9005 12.6547 13.4147C13.3611 12.9242 13.7979 12.1969 14.0735 11.3015C14.3459 10.416 14.4736 9.3245 14.5368 8.04522C14.6 6.76476 14.6 5.25254 14.6 3.51278V3.5127V3.5H13.4C13.4 5.25487 13.3998 6.73837 13.3382 7.98603C13.2764 9.238 13.1541 10.209 12.9265 10.9485C12.702 11.6781 12.3889 12.1383 11.9702 12.4291C11.5447 12.7245 10.9313 12.9 10 12.9C9.06874 12.9 8.45525 12.7246 8.02975 12.4291C7.61113 12.1384 7.29797 11.6782 7.07348 10.9486C6.84594 10.2091 6.7236 9.23806 6.66177 7.98608C6.60016 6.73842 6.6 5.2549 6.6 3.5H5.4ZM5 15.9V17.1H15V15.9H5Z" fill="#09101C"/>
</svg>
